openframe-frontend-core/src/components/icons-v2/brand-logos/windows-logo.svg

<svg width="24" height="24" viewBox="0 0 24 24" fill="none" xmlns="http://www.w3.org/2000/svg">
<path d="M2 4.83164L10.1734 3.72202L10.177 11.5816L2.00742 11.628L2 4.83172V4.83164ZM10.1695 12.4871L10.1758 20.3536L2.00633 19.2339L2.00586 12.4344L10.1695 12.4871ZM11.1603 3.57677L21.9975 2V11.4816L11.1603 11.5673V3.57677ZM22 12.5611L21.9974 22L11.1602 20.4752L11.1451 12.5434L22 12.5611Z" fill="#41B2E9"/>
</svg>

<svg xmlns="http://www.w3.org/2000/svg" width="24" height="24" fill="none" viewBox="0 0 24 24">
  <path fill="#888" d="m2 4.832 8.173-1.11.004 7.86-8.17.046L2 4.832Zm8.17 7.655.006 7.867-8.17-1.12v-6.8l8.163.053Zm.99-8.91L21.997 2v9.482l-10.837.085v-7.99ZM22 12.56 21.997 22 11.16 20.475l-.015-7.932L22 12.561Z"/>
</svg>
